Suru++-Ubuntu/status/scalable/security-medium.svg

<svg width="256" height="256" version="1.1" viewBox="0 0 67.73 67.73" xmlns="http://www.w3.org/2000/svg" xmlns:xlink="http://www.w3.org/1999/xlink">
 <defs>
  <linearGradient id="linearGradient1108" x1="296" x2="296" y1="-212" y2="236" gradientUnits="userSpaceOnUse">
   <stop style="stop-color:#ffffff" offset="0"/>
   <stop style="stop-color:#ffffff;stop-opacity:.09803922" offset=".125"/>
   <stop style="stop-color:#000000;stop-opacity:.09803922" offset=".925"/>
   <stop style="stop-color:#000000;stop-opacity:.49803922" offset="1"/>
  </linearGradient>
  <clipPath id="clipPath1082-3-2">
   <path d="M 361.9375,-212 C 507.2348,-212 528,-191.28677 528,-46.125 V 70.125 C 528,215.28618 507.2348,236 361.9375,236 H 214.0625 C 68.7652,236 48,215.28618 48,70.125 V -46.125 C 48,-191.28677 68.7652,-212 214.0625,-212 Z" style="fill:#8c59d9"/>
  </clipPath>
  <filter id="filter4569" x="-.01" y="-.01" width="1.023" height="1.025" style="color-interpolation-filters:sRGB">
   <feGaussianBlur stdDeviation="1.16"/>
  </filter>
  <filter id="filter913" x="-.02" y="-.03" width="1.046" height="1.05" style="color-interpolation-filters:sRGB">
   <feGaussianBlur stdDeviation="2.32"/>
  </filter>
  <filter id="filter1013" x="-.05" y="-.04" width="1.104" height="1.089" style="color-interpolation-filters:sRGB">
   <feGaussianBlur stdDeviation=".745"/>
  </filter>
  <linearGradient id="linearGradient4317" x1="526.097" x2="397.147" y1="51.276" y2="51.276" gradientTransform="matrix(.17977937 0 0 .15709877 -54.507796 233.56131)" gradientUnits="userSpaceOnUse" spreadMethod="reflect">
   <stop style="stop-color:#b4b4b4" offset="0"/>
   <stop style="stop-color:#ffffff" offset="1"/>
  </linearGradient>
  <linearGradient id="linearGradient4292" x1="116" x2="116" y1="15.25" y2="47.25" gradientTransform="matrix(1.0079364,0,0,1.0079364,-82.89465,229.77346)" gradientUnits="userSpaceOnUse">
   <stop style="stop-color:#4f4f4f" offset="0"/>
   <stop style="stop-color:#b3b3b3" offset="1"/>
  </linearGradient>
 </defs>
 <g transform="translate(0,-229.26666)">
  <path transform="matrix(.26458333 0 0 .26458333 -1.8735229e-8 232.67026)" d="m162.53675 5.5680001c72.64865 0 83.03125 10.356615 83.03125 82.937505v58.125005c0 72.58059-10.3826 82.9375-83.03125 82.9375h-73.937496c-72.648654 0-83.031254-10.35691-83.031254-82.9375v-58.125005c0-72.58089 10.3826-82.937505 83.031254-82.937505z" style="filter:url(#filter913);opacity:.2"/>
  <path transform="matrix(.26458333 0 0 .26458333 -1.8735229e-8 232.67026)" d="m162.53675 3.5680001c72.64865 0 83.03125 10.356615 83.03125 82.937505v58.125005c0 72.58059-10.3826 82.9375-83.03125 82.9375h-73.937496c-72.648654 0-83.031254-10.35691-83.031254-82.9375v-58.125005c0-72.58089 10.3826-82.937505 83.031254-82.937505z" style="filter:url(#filter4569);opacity:.1"/>
  <path d="m23.441882 233.61429c-9.611188 0-15.101641 0.68375-18.19217 3.77032-3.090525 3.08656-3.776514 8.57135-3.776514 18.17356v15.37891c0 9.60218 0.68599 15.087 3.776514 18.17357 3.0905286 3.08658 8.580982 3.77031 18.19217 3.77031h19.562631c9.61119 0 15.101644-0.68373 18.19217-3.77031 3.090527-3.08657 3.776515-8.57139 3.776515-18.17357v-15.37891c0-9.60221-0.685988-15.087-3.776515-18.17356-3.090526-3.08657-8.580982-3.77032-18.19217-3.77032z" style="fill:#4d4d4d"/>
  <path d="m1.473198 270.40792v0.52916c0 9.60218 0.68599 15.087 3.776514 18.17357 3.0905286 3.08658 8.580982 3.77031 18.19217 3.77031h19.562631c9.61119 0 15.101644-0.68373 18.19217-3.77031 3.090527-3.08657 3.776515-8.57139 3.776515-18.17357v-0.52916c0 9.60217-0.685988 15.08699-3.776515 18.17356-3.090526 3.08658-8.58098 3.77032-18.19217 3.77032h-19.562631c-9.611188 0-15.101641-0.68374-18.19217-3.77032-3.090524-3.08657-3.776514-8.57139-3.776514-18.17356z" style="fill:#131313;opacity:.2"/>
  <path transform="matrix(.13229167 0 0 .13229167 -4.876802 261.66013)" d="M 361.9375,-212 C 507.2348,-212 528,-191.28677 528,-46.125 V 70.125 C 528,215.28618 507.2348,236 361.9375,236 H 214.0625 C 68.7652,236 48,215.28618 48,70.125 V -46.125 C 48,-191.28677 68.7652,-212 214.0625,-212 Z" clip-path="url(#clipPath1082-3-2)" style="fill:none;opacity:.4;stroke-linecap:round;stroke-linejoin:round;stroke-width:8;stroke:url(#linearGradient1108)"/>
  <g transform="translate(-.79985215 1.5111593)">
   <path d="m16.891055 247.51866 17.134921-5.90195 17.134921 5.90591c0 22.67854 1.007933 23.85882-17.134921 34.3336-18.330887-10.58332-17.134921-11.65897-17.134921-34.33756z" style="filter:url(#filter1013);opacity:.3"/>
   <path d="m16.891055 247.51866 17.134921-5.90195 17.134921 5.90591c0 22.67854 1.007933 23.85882-17.134921 34.3336-18.330887-10.58332-17.134921-11.65897-17.134921-34.33756z" style="fill:url(#linearGradient4317)"/>
   <path d="m19.914864 249.82753 14.111112-5.18682 14.111112 5.18427c0 19.65478-1.017616 20.51793-14.111112 28.07745-12.095237-6.98318-14.111112-8.42017-14.111112-28.0749z" style="fill:url(#linearGradient4292)"/>
   <path d="m20.418834 250.18418 13.607142-5.0397 13.607142 5.0397c0 19.65477-0.513665 19.65477-13.607142 27.21427-12.095237-6.9832-13.607142-7.5595-13.607142-27.21427z" style="fill:none;opacity:.5;stroke-linecap:round;stroke-linejoin:round;stroke-width:1.0079364;stroke:#555761"/>
  </g>
  <path transform="matrix(.26458333 0 0 .26458333 0 229.26666)" d="m245.56836 99.369141c0-9.072955-0.16231-17.173101-0.58789-24.402344-0.21279-3.614622-0.49237-7.011358-0.84961-10.203125s-0.79129-6.178363-1.31836-8.972656c-0.52707-2.794294-1.14688-5.396158-1.86914-7.81836-0.72227-2.422201-1.5474-4.664742-2.49024-6.740234-0.94283-2.075492-2.00262-3.984118-3.1914-5.738281-1.18878-1.754164-2.50671-3.354283-3.9668-4.8125-1.46009-1.458222-3.06211-2.773823-4.81836-3.960938-1.75625-1.187114-3.66632-2.246113-5.74414-3.1875-2.07781-0.941387-4.32326-1.765289-6.74804-2.486328-2.42479-0.721039-5.02902-1.339163-7.82618-1.865234-2.79716-0.526072-5.78748-0.959923-8.98242-1.316407-3.19494-0.356483-6.59476-0.63538-10.21289-0.847656-7.23626-0.424551-15.34434-0.585937-24.42578-0.585937h-36.96875v224h36.96875c9.08144 0 17.18952-0.16139 24.42578-0.58594 3.61813-0.21227 7.01795-0.48922 10.21289-0.8457s6.18526-0.79229 8.98242-1.31836 5.40139-1.1442 7.82618-1.86523c2.42478-0.72104 4.67023-1.54495 6.74804-2.48633 2.07782-0.94139 3.98789-1.99843 5.74414-3.18555 1.75625-1.18711 3.35827-2.50466 4.81836-3.96289 1.46009-1.45822 2.77802-3.05833 3.9668-4.8125s2.24857-3.66278 3.1914-5.73828c0.94284-2.0755 1.76797-4.31803 2.49024-6.74024 0.72226-2.4222 1.34207-5.02406 1.86914-7.81835 0.52707-2.7943 0.96112-5.78089 1.31836-8.97266s0.63682-6.58851 0.84961-10.20313c0.42558-7.22923 0.58789-15.32941 0.58789-24.40234v-58.124999z" style="fill:#ffffff;opacity:.05"/>
 </g>
</svg>

<svg xmlns="http://www.w3.org/2000/svg" xmlns:xlink="http://www.w3.org/1999/xlink" width="256" height="256" version="1.1" viewBox="0 0 67.73 67.73">
 <defs>
  <linearGradient id="linearGradient1108" x1="296" x2="296" y1="-212" y2="236" gradientUnits="userSpaceOnUse" xlink:href="#linearGradient1013"/>
  <linearGradient id="linearGradient1013">
   <stop offset="0" style="stop-color:#ffffff"/>
   <stop style="stop-color:#ffffff;stop-opacity:0.09803922" offset=".125"/>
   <stop style="stop-color:#000000;stop-opacity:0.09803922" offset=".925"/>
   <stop offset="1" style="stop-color:#000000;stop-opacity:0.49803922"/>
  </linearGradient>
  <clipPath id="clipPath1082-3-2" clipPathUnits="userSpaceOnUse">
   <path d="M 361.9375,-212 C 507.2348,-212 528,-191.28677 528,-46.125 V 70.125 C 528,215.28618 507.2348,236 361.9375,236 H 214.0625 C 68.7652,236 48,215.28618 48,70.125 V -46.125 C 48,-191.28677 68.7652,-212 214.0625,-212 Z" style="fill:#8c59d9"/>
  </clipPath>
  <filter style="color-interpolation-filters:sRGB" id="filter4569" width="1.023" height="1.025" x="-.01" y="-.01">
   <feGaussianBlur stdDeviation="1.16"/>
  </filter>
  <filter style="color-interpolation-filters:sRGB" id="filter913" width="1.046" height="1.05" x="-.02" y="-.03">
   <feGaussianBlur stdDeviation="2.32"/>
  </filter>
  <filter style="color-interpolation-filters:sRGB" id="filter1013" width="1.104" height="1.089" x="-.05" y="-.04">
   <feGaussianBlur stdDeviation=".745"/>
  </filter>
  <linearGradient id="linearGradient4317" x1="526.097" x2="397.147" y1="51.276" y2="51.276" gradientTransform="matrix(0.17977937,0,0,0.15709877,-54.507796,233.56131)" gradientUnits="userSpaceOnUse" spreadMethod="reflect" xlink:href="#linearGradient2793-2-0-669-94-2"/>
  <linearGradient id="linearGradient2793-2-0-669-94-2">
   <stop style="stop-color:#b4b4b4" offset="0"/>
   <stop style="stop-color:#ffffff" offset="1"/>
  </linearGradient>
  <linearGradient id="linearGradient4292" x1="116" x2="116" y1="15.25" y2="47.25" gradientTransform="matrix(1.0079364,0,0,1.0079364,-82.89465,229.77346)" gradientUnits="userSpaceOnUse" xlink:href="#linearGradient4290"/>
  <linearGradient id="linearGradient4290">
   <stop style="stop-color:#4f4f4f" offset="0"/>
   <stop style="stop-color:#b3b3b3" offset="1"/>
  </linearGradient>
 </defs>
 <g transform="translate(0,-229.26666)">
  <path style="opacity:0.2;filter:url(#filter913)" d="m 162.53675,5.5680001 c 72.64865,0 83.03125,10.3566149 83.03125,82.9375049 v 58.125005 c 0,72.58059 -10.3826,82.9375 -83.03125,82.9375 H 88.599254 C 15.9506,229.56801 5.568,219.2111 5.568,146.63051 V 88.505505 c 0,-72.58089 10.3826,-82.9375049 83.031254,-82.9375049 z" transform="matrix(0.26458333,0,0,0.26458333,-1.8735229e-8,232.67026)"/>
  <path d="m 162.53675,3.5680001 c 72.64865,0 83.03125,10.3566149 83.03125,82.9375049 v 58.125005 c 0,72.58059 -10.3826,82.9375 -83.03125,82.9375 H 88.599254 C 15.9506,227.56801 5.568,217.2111 5.568,144.63051 V 86.505505 c 0,-72.58089 10.3826,-82.9375049 83.031254,-82.9375049 z" transform="matrix(0.26458333,0,0,0.26458333,-1.8735229e-8,232.67026)" style="opacity:0.1;filter:url(#filter4569)"/>
  <path style="fill:#4d4d4d" d="m 23.441882,233.61429 c -9.611188,0 -15.1016409,0.68375 -18.19217,3.77032 -3.090525,3.08656 -3.776514,8.57135 -3.776514,18.17356 v 15.37891 c 0,9.60218 0.68599,15.087 3.776514,18.17357 3.0905286,3.08658 8.580982,3.77031 18.19217,3.77031 h 19.562631 c 9.61119,0 15.101644,-0.68373 18.19217,-3.77031 3.090527,-3.08657 3.776515,-8.57139 3.776515,-18.17357 v -15.37891 c 0,-9.60221 -0.685988,-15.087 -3.776515,-18.17356 -3.090526,-3.08657 -8.580982,-3.77032 -18.19217,-3.77032 z"/>
  <path style="opacity:0.2;fill:#131313" d="m 1.473198,270.40792 v 0.52916 c 0,9.60218 0.68599,15.087 3.776514,18.17357 3.0905286,3.08658 8.580982,3.77031 18.19217,3.77031 h 19.562631 c 9.61119,0 15.101644,-0.68373 18.19217,-3.77031 3.090527,-3.08657 3.776515,-8.57139 3.776515,-18.17357 v -0.52916 c 0,9.60217 -0.685988,15.08699 -3.776515,18.17356 -3.090526,3.08658 -8.58098,3.77032 -18.19217,3.77032 H 23.441882 c -9.611188,0 -15.1016414,-0.68374 -18.19217,-3.77032 -3.090524,-3.08657 -3.776514,-8.57139 -3.776514,-18.17356 z"/>
  <path d="M 361.9375,-212 C 507.2348,-212 528,-191.28677 528,-46.125 V 70.125 C 528,215.28618 507.2348,236 361.9375,236 H 214.0625 C 68.7652,236 48,215.28618 48,70.125 V -46.125 C 48,-191.28677 68.7652,-212 214.0625,-212 Z" clip-path="url(#clipPath1082-3-2)" transform="matrix(0.13229167,0,0,0.13229167,-4.876802,261.66013)" style="opacity:0.4;fill:none;stroke:url(#linearGradient1108);stroke-width:8;stroke-linecap:round;stroke-linejoin:round"/>
  <g transform="translate(-0.79985215,1.5111593)">
   <path style="opacity:0.3;filter:url(#filter1013)" d="m 16.891055,247.51866 17.134921,-5.90195 17.134921,5.90591 c 0,22.67854 1.007933,23.85882 -17.134921,34.3336 C 15.695089,271.2729 16.891055,270.19725 16.891055,247.51866 Z"/>
   <path d="m 16.891055,247.51866 17.134921,-5.90195 17.134921,5.90591 c 0,22.67854 1.007933,23.85882 -17.134921,34.3336 C 15.695089,271.2729 16.891055,270.19725 16.891055,247.51866 Z" style="fill:url(#linearGradient4317)"/>
   <path style="fill:url(#linearGradient4292)" d="m 19.914864,249.82753 14.111112,-5.18682 14.111112,5.18427 c 0,19.65478 -1.017616,20.51793 -14.111112,28.07745 -12.095237,-6.98318 -14.111112,-8.42017 -14.111112,-28.0749 z"/>
   <path d="m 20.418834,250.18418 13.607142,-5.0397 13.607142,5.0397 c 0,19.65477 -0.513665,19.65477 -13.607142,27.21427 -12.095237,-6.9832 -13.607142,-7.5595 -13.607142,-27.21427 z" style="opacity:0.5;fill:none;stroke:#555761;stroke-width:1.00793636;stroke-linecap:round;stroke-linejoin:round"/>
  </g>
  <path style="opacity:0.05;fill:#ffffff" d="M 245.56836 99.369141 C 245.56836 90.296186 245.40605 82.19604 244.98047 74.966797 C 244.76768 71.352175 244.4881 67.955439 244.13086 64.763672 C 243.77362 61.571905 243.33957 58.585309 242.8125 55.791016 C 242.28543 52.996722 241.66562 50.394858 240.94336 47.972656 C 240.22109 45.550455 239.39596 43.307914 238.45312 41.232422 C 237.51029 39.15693 236.4505 37.248304 235.26172 35.494141 C 234.07294 33.739977 232.75501 32.139858 231.29492 30.681641 C 229.83483 29.223419 228.23281 27.907818 226.47656 26.720703 C 224.72031 25.533589 222.81024 24.47459 220.73242 23.533203 C 218.65461 22.591816 216.40916 21.767914 213.98438 21.046875 C 211.55959 20.325836 208.95536 19.707712 206.1582 19.181641 C 203.36104 18.655569 200.37072 18.221718 197.17578 17.865234 C 193.98084 17.508751 190.58102 17.229854 186.96289 17.017578 C 179.72663 16.593027 171.61855 16.431641 162.53711 16.431641 L 125.56836 16.431641 L 125.56836 240.43164 L 162.53711 240.43164 C 171.61855 240.43164 179.72663 240.27025 186.96289 239.8457 C 190.58102 239.63343 193.98084 239.35648 197.17578 239 C 200.37072 238.64352 203.36104 238.20771 206.1582 237.68164 C 208.95536 237.15557 211.55959 236.53744 213.98438 235.81641 C 216.40916 235.09537 218.65461 234.27146 220.73242 233.33008 C 222.81024 232.38869 224.72031 231.33165 226.47656 230.14453 C 228.23281 228.95742 229.83483 227.63987 231.29492 226.18164 C 232.75501 224.72342 234.07294 223.12331 235.26172 221.36914 C 236.4505 219.61497 237.51029 217.70636 238.45312 215.63086 C 239.39596 213.55536 240.22109 211.31283 240.94336 208.89062 C 241.66562 206.46842 242.28543 203.86656 242.8125 201.07227 C 243.33957 198.27797 243.77362 195.29138 244.13086 192.09961 C 244.4881 188.90784 244.76768 185.5111 244.98047 181.89648 C 245.40605 174.66725 245.56836 166.56707 245.56836 157.49414 L 245.56836 99.369141 z" transform="matrix(0.26458333,0,0,0.26458333,0,229.26666)"/>
 </g>
</svg>
